Adwaita++/actions/16/journal-new.svg

<svg height="16" viewBox="0 0 16 16" width="16" xmlns="http://www.w3.org/2000/svg">
  <path d="m1 1v2h14v-2zm0 4.0039062v2h14v-2zm0 4v1.9999998h6v-1.9999998zm10 0v1.9999998h-2v2h2v2h2v-2h2v-2h-2v-1.9999998zm-10 3.9960938v2h6v-2z" fill="#474747"/>
</svg>

<svg xmlns="http://www.w3.org/2000/svg" width="16" height="16" viewBox="0 0 16 16">
 <defs>
  <style id="current-color-scheme" type="text/css">
   .ColorScheme-Text { color:#474747; } .ColorScheme-Highlight { color:#4285f4; }
  </style>
 </defs>
 <path style="fill:currentColor" class="ColorScheme-Text" d="M 1 1 L 1 3 L 15 3 L 15 1 L 1 1 z M 1 5.0039062 L 1 7.0039062 L 15 7.0039062 L 15 5.0039062 L 1 5.0039062 z M 1 9.0039062 L 1 11.003906 L 7 11.003906 L 7 9.0039062 L 1 9.0039062 z M 11 9.0039062 L 11 11.003906 L 9 11.003906 L 9 13.003906 L 11 13.003906 L 11 15.003906 L 13 15.003906 L 13 13.003906 L 15 13.003906 L 15 11.003906 L 13 11.003906 L 13 9.0039062 L 11 9.0039062 z M 1 13 L 1 15 L 7 15 L 7 13 L 1 13 z"/>
</svg>
